ab-testing.svg

<svg fill="currentColor" viewBox="0 0 24 24"><path d="M4 2a2 2 0 0 0-2 2v8h2V8h2v4h2V4a2 2 0 0 0-2-2zm0 2h2v2H4m18 9.5V14a2 2 0 0 0-2-2h-4v10h4a2 2 0 0 0 2-2v-1.5a1.54 1.54 0 0 0-1.5-1.5 1.54 1.54 0 0 0 1.5-1.5M20 20h-2v-2h2zm0-4h-2v-2h2M5.79 21.61l-1.58-1.22 14-18 1.58 1.22Z"/></svg>

<svg  viewBox="0 0 24 24" fill="currentColor"><path  d="M4 2A2 2 0 0 0 2 4V12H4V8H6V12H8V4A2 2 0 0 0 6 2H4M4 4H6V6H4M22 15.5V14A2 2 0 0 0 20 12H16V22H20A2 2 0 0 0 22 20V18.5A1.54 1.54 0 0 0 20.5 17A1.54 1.54 0 0 0 22 15.5M20 20H18V18H20V20M20 16H18V14H20M5.79 21.61L4.21 20.39L18.21 2.39L19.79 3.61Z"/></svg>
